!!!SOCIAL_FUNCTION:	dream songs
!!!PDT:	1909
!!!OTL: No_117_In_the_Southern_Sky.krn
!!!REG: Great_Lakes
!!!LANG: Non-Tone
!!!LING_GROUP: Algonquin
**kern	**kern
*staff2	*staff1
*clefF4	*clefF4
*k[f#c#g#]	*k[f#c#g#]
*M3/4	*M3/4
8r	8.e\L
8GG#/	.
.	16c#\Jk
=1	=1
12GG#^/	4e\
12r	.
12GG#/	.
12GG#^/	2e\
12r	.
12GG#/	.
12GG#^/	.
12r	.
12GG#/	.
=2||	=2||
*M2/4	*M2/4
2r	16e\LK
.	8.c#\J
.	8A\L
.	16c#\L
.	16B\JJ
=3	=3
2r	4A\
.	[4A\
=4	=4
2r	4A\]
.	16A\LK
.	8.A\J
=5	=5
2r	16F#\LK
.	8.A\J
.	4A\
=6||	=6||
*M3/4	*M3/4
2.r	2A\
.	8.e\L
.	16c#\Jk
=7	=7
2.r	4e\
.	2e\
=8||	=8||
*M2/4	*M2/4
2r	16e\LK
.	8.c#\J
.	8A\L
.	16c#\L
.	16B\JJ
=9	=9
2r	4A\
.	[4A\
=10	=10
2r	4A\]
.	16A\LK
.	8.A\J
=11	=11
2r	16F#\LK
.	8.A\J
.	4A\
=12	=12
2r	2A\
=13	=13
2r	8c#\L
.	8c#\J
.	12A\L
.	12c#\
.	12c#\J
=14	=14
2r	(2A\
=15	=15
2r	8.F#\L)
.	16F#\Jk
.	12F#\L
.	12E\
.	12F#\J
=16	=16
2r	[2E\
=17	=17
2r	4.E\]
.	8E\
=18	=18
2r	8E/L
.	8C#/J
.	4E\
=19||	=19||
*M3/4	*M3/4
2.r	2E\
.	16E/LK
.	8.C#/J
=20	=20
2.r	8.AA/L
.	16AA/Jk
.	[2AA/
=21	=21
*M2/4	*M2/4
2r	2AA/]
==	==
*-	*-
